X:1
T:San Bernardino, 11.11.11 D
T:San Bernardino, 11.11.11 D
T:Anonymous, chorus by M. S. Sloane
T:Public Domain Courtesy of the Cyber Hymnal™
C:Anonymous, chorus by M. S. Sloane
Z:Public Domain
Z:Courtesy of the Cyber Hymnal™
%%score ( 1 2 ) ( 3 4 )
L:1/8
Q:1/4=110
M:4/4
K:A
V:1 treble 
V:2 treble 
V:3 bass 
V:4 bass 
V:1
 [CE]2 [DF]2 [EG]2 [EA]2 | [DA]4 [DG]4 | [DG]2 [DF]2 [DG]2 [DF]2 | ([DF]4 [CE]4) | %4
 [CE]2 [EA]2 [Ac]2 [=Ge]2 | (e2 d2) (A2 B2) | [Ec]2 [Ac]2 [Ac]2 [GB]2 | [EA]8 | %8
[M:3/4] [Ec][EB] [EA]2 [DF]2 | (GF) [DE]4 | [GB][^^F^A] [GB]2 [DE]2 | [Cc]4 z2 | %12
 [Fd][Fc] [FB]2 [F^A]2 | [Ec]2 [FB]2 z2 | [^DA][DG] [=DG]2 [DF]2 | [DB]6 | [Ec][EB] [EA]2 [DF]2 | %17
 (GF) [DE]4 | [GB][G^A] [GB]2 [DE]2 | [Cc]4 z2 | [Fc][Fc] !fermata![^Ae]2 [Ac]2 | (BA) [=DF]4 | %22
 [DA][DG] [Gc]2 [GB]2 | A6 |] %24
V:2
 x8 | x8 | x8 | x8 | x8 | F4 F4 | x8 | x8 |[M:3/4] x6 | D2 x4 | x6 | x6 | x6 | x6 | x6 | x6 | x6 | %17
 D2 x4 | x6 | x6 | x6 | ^D2 x4 | x6 | A6 |] %24
V:3
 A,2 [A,C]2 [B,D]2 [A,C]2 | [E,B,]4 [E,B,]4 | [E,B,]2 [E,A,]2 [E,B,]2 [E,G,]2 | [A,,A,]8 | %4
 A,2 [A,,C]2 [A,,E]2 [C,A,]2 | [D,A,]4 [D,A,]4 | [E,A,]2 [E,E]2 [E,E]2 [E,D]2 | [A,C]8 | %8
[M:3/4] [A,,A,][A,,A,] [C,A,]2 [D,B,]2 | (B,A,) [E,G,]4 | [E,D][E,C] [E,D]2 [E,G,]2 | [A,,A,]4 z2 | %12
 [B,,F,][B,,F,] [D,B,]2 [E,C]2 | [D,A,]2 [^D,A,]2 z2 | [F,B,][F,B,] [E,B,]2 [E,A,]2 | [E,G,]6 | %16
 [A,,A,][A,,A,] [C,A,]2 [D,B,]2 | (B,A,) [E,G,]4 | [E,D][E,D] [E,D]2 [E,G,]2 | [A,,A,]4 z2 | %20
 [F,^A,][F,A,] !fermata![F,C]2 [F,C]2 | [B,,B,]2 [B,,B,]4 | [E,B,][E,B,] [E,D]2 [E,D]2 | [A,,C]6 |] %24
V:4
 A,2 x6 | x8 | x8 | x8 | A,2 x6 | x8 | x8 | x8 |[M:3/4] x6 | E,2 x4 | x6 | x6 | x6 | x6 | x6 | x6 | %16
 x6 | E,2 x4 | x6 | x6 | x6 | x6 | x6 | x6 |] %24

